; generated by PrusaSlicer 2.5.2 on 2023-05-15 at 17:47:34 UTC


;
;
; 

; external perimeters extrusion width = 0.45mm
; perimeters extrusion width = 0.45mm
; infill extrusion width = 0.45mm
; solid infill extrusion width = 0.45mm
; top infill extrusion width = 0.40mm
; first layer extrusion width = 0.42mm

M73 P0 R85
M73 Q0 S85
M201 X1000 Y1000 Z200 E5000 ; sets maximum accelerations, mm/sec^2
M203 X200 Y200 Z12 E120 ; sets maximum feedrates, mm / sec
M204 P1250 R1250 T1250 ; sets acceleration (P, T) and retract acceleration (R), mm/sec^2
M205 X8.00 Y8.00 Z0.40 E4.50 ; sets the jerk limits, mm/sec
M205 S0 T0 ; sets the minimum extruding and travel feed rate, mm/sec
M107
;TYPE:Custom
M862.3 P "MK3S" ; printer model check
M862.1 P0.4 ; nozzle diameter check
M115 U3.12.2 ; tell printer latest fw version
G90 ; use absolute coordinates
M83 ; extruder relative mode
M104 S215 ; set extruder temp
M140 S60 ; set bed temp
M190 S60 ; wait for bed temp
M109 S215 ; wait for extruder temp
G28 W ; home all without mesh bed level
G80 ; mesh bed leveling

G1 Z0.2 F720
G1 Y-3 F1000 ; go outside print area
G92 E0
G1 X60 E9 F1000 ; intro line
G1 X100 E12.5 F1000 ; intro line

G92 E0
M221 S95

; Don't change E values below. Excessive value can damage the printer.
M907 E430 ; set extruder motor current
G21 ; set units to millimeters
G90 ; use absolute coordinates
M83 ; use relative distances for extrusion
M900 K0.05 ; Filament gcode LA 1.5
M900 K30 ; Filament gcode LA 1.0
M107
;LAYER_CHANGE
;Z:0.2
;HEIGHT:0.2
;BEFORE_LAYER_CHANGE
G92 E0.0
;0.2


G1 E-.8 F2100
G1 Z.4 F720
;AFTER_LAYER_CHANGE
;0.2
G1 X97.424 Y96.765 F10800
G1 Z.2 F720
G1 E.8 F2100
M204 S800
;TYPE:Skirt/Brim
;WIDTH:0.42
G1 F1200
G1 X98.16 Y96.145 E.03016
G1 X99.113 Y95.661 E.03352
G1 X100.318 Y95.397 E.0387
G1 X125.086 Y93.859 E.77808
G1 X127.408 Y94.013 E.07297
G1 X129.753 Y94.479 E.07495
G1 X132.019 Y95.247 E.07502
G1 X134.182 Y96.316 E.07565
G1 X136.196 Y97.669 E.07608
G1 X138.022 Y99.288 E.07651
G1 X139.634 Y101.163 E.07755
G1 X140.9 Y103.109 E.07276
G1 X141.264 Y104.099 E.03307
G1 X141.363 Y105.168 E.03367
G1 X141.194 Y106.166 E.03175
G1 X140.792 Y107.086 E.03146
G1 X139.661 Y108.801 E.06443
G1 X138.315 Y110.407 E.06569
G1 X136.738 Y111.896 E.06802
G1 X135.146 Y113.085 E.0623
G1 X133.957 Y113.812 E.0437
G1 X132.675 Y114.466 E.04513
G1 X131.351 Y115.014 E.04492
G1 X130.091 Y115.427 E.04159
G1 X127.427 Y115.985 E.08531
G1 X124.755 Y116.14 E.08393
G1 X100.191 Y114.591 E.77172
G1 X99.119 Y114.341 E.03452
G1 X98.26 Y113.92 E.02999
G1 X97.507 Y113.32 E.03019
G1 X96.906 Y112.573 E.03006
G1 X96.394 Y111.466 E.03823
G1 X96.189 Y110.276 E.03789
G1 X96.198 Y99.565 E.33582
G1 X96.393 Y98.536 E.03284
G1 X96.842 Y97.529 E.03457
G1 X97.388 Y96.813 E.02823
M204 S1000
G1 X97.691 Y97.033 F10800
M204 S800
G1 F1200
G1 X98.365 Y96.461 E.02773
G1 X99.247 Y96.014 E.03099
G1 X100.354 Y95.773 E.03554
G1 X125.085 Y94.236 E.77692
G1 X127.358 Y94.387 E.07143
G1 X129.653 Y94.843 E.07336
G1 X131.877 Y95.596 E.07363
G1 X133.991 Y96.641 E.07393
G1 X135.967 Y97.968 E.07463
G1 X137.755 Y99.555 E.07495
G1 X139.334 Y101.391 E.07592
G1 X140.565 Y103.282 E.07075
G1 X140.897 Y104.186 E.03019
G1 X140.984 Y105.211 E.03227
G1 X140.774 Y106.238 E.03287
G1 X140.317 Y107.149 E.03194
G1 X139.204 Y108.779 E.06189
G1 X137.907 Y110.289 E.06241
G1 X136.494 Y111.608 E.06059
G1 X134.903 Y112.794 E.06222
G1 X132.649 Y114.062 E.0811
G1 X131.394 Y114.595 E.04275
G1 X130.128 Y115.023 E.04191
G1 X128.895 Y115.342 E.03993
G1 X127.427 Y115.604 E.04674
G1 X124.921 Y115.765 E.07875
G1 X100.227 Y114.215 E.77577
G1 X99.252 Y113.988 E.03139
G1 X98.466 Y113.604 E.02744
G1 X97.777 Y113.056 E.02759
G1 X97.226 Y112.374 E.02748
G1 X96.755 Y111.359 E.03508
G1 X96.565 Y110.263 E.03487
G1 X96.574 Y99.599 E.33438
G1 X96.72 Y98.762 E.02664
G1 X97.08 Y97.874 E.03004
G1 X97.656 Y97.082 E.03071
M204 S1000
; printing object 3DBenchy.stl id:0 copy 0
;WIPE_START
G1 F8640
G1 X98.365 Y96.461 E-.2177
G1 X99.247 Y96.014 E-.22825
G1 X100.354 Y95.773 E-.26172
G1 X100.58 Y95.759 E-.05233
;WIPE_END
G1 E-.04 F2100
G1 Z.6 F720
G1 X131.771 Y103.264 F10800
G1 Z.2 F720
G1 E.8 F2100
M204 S800
;TYPE:Perimeter
;WIDTH:0.419999
G1 F1200
G1 X131.456 Y102.914 E.01475
G1 X131.026 Y102.734 E.01462
G1 X130.718 Y102.73 E.00967
G1 X130.358 Y102.848 E.01186
G1 X130.146 Y103.002 E.00823
G1 X129.741 Y103.509 E.02033
G1 X129.538 Y104.044 E.01794
G1 X129.353 Y103.457 E.01928
G1 X129.12 Y103.119 E.01289
G1 X128.792 Y102.875 E.01281
G1 X128.384 Y102.727 E.01361
G1 X127.934 Y102.719 E.01412
G1 X127.488 Y102.874 E.0148
G1 X127.15 Y103.208 E.0149
G1 X126.933 Y102.975 E.00999
G1 X126.488 Y102.745 E.01569
G1 X126.081 Y102.72 E.01279
G1 X125.716 Y102.854 E.01219
G1 X125.345 Y103.167 E.01521
G1 X125.174 Y103.419 E.00956
G1 X125.005 Y103.142 E.01016
G1 X124.605 Y102.822 E.01604
G1 X124.18 Y102.709 E.01382
G1 X123.73 Y102.769 E.01423
G1 X123.37 Y102.947 E.01258
G1 X123.07 Y103.252 E.0134
G1 X122.906 Y103.644 E.01334
G1 X122.902 Y104.096 E.01417
G1 X123.056 Y104.59 E.01624
G1 X123.708 Y105.754 E.04182
G1 X123.557 Y105.997 E.00897
G1 X123.294 Y106.56 E.01949
G1 X123.213 Y106.392 E.00586
G1 X122.948 Y106.051 E.01355
G1 X122.521 Y105.763 E.01614
G1 X122.288 Y105.677 E.0078
G1 X121.688 Y105.624 E.01888
G1 X121.316 Y105.721 E.01205
G1 X121.397 Y104.785 E.02945
G1 X121.36 Y104.255 E.01669
G1 X121.225 Y103.572 E.02181
G1 X121.061 Y103.091 E.01593
G1 X120.769 Y102.558 E.01906
G1 X120.403 Y102.11 E.01815
G1 X120.007 Y101.783 E.0161
G1 X119.528 Y101.531 E.01697
G1 X119.003 Y101.375 E.01717
G1 X118.352 Y101.284 E.02063
G1 X116.745 Y101.247 E.05039
G1 X116.372 Y101.282 E.01175
G1 X115.881 Y101.457 E.01631
G1 X115.539 Y101.763 E.01439
G1 X115.346 Y102.174 E.01425
;WIDTH:0.461927
G1 X115.319 Y102.347 E.0061
;WIDTH:0.503855
G1 X115.293 Y102.52 E.00671
;WIDTH:0.545782
G1 X115.266 Y102.693 E.00732
G1 X115.15 Y102.478 E.01024
;WIDTH:0.503855
G1 X115.033 Y102.262 E.00939
;WIDTH:0.461927
G1 X114.917 Y102.047 E.00853
;WIDTH:0.419999
G1 X114.524 Y101.612 E.01837
G1 X113.948 Y101.282 E.02083
G1 X113.298 Y101.12 E.02099
G1 X112.527 Y101.094 E.02418
G1 X111.799 Y101.213 E.02313
G1 X111.286 Y101.435 E.01755
G1 X110.76 Y101.861 E.02121
G1 X110.524 Y101.562 E.01195
G1 X110.188 Y101.357 E.01234
G1 X109.714 Y101.258 E.01517
G1 X106.541 Y101.269 E.09949
G1 X105.829 Y101.23 E.02236
G1 X105.258 Y101.387 E.01858
G1 X104.952 Y101.677 E.0132
G1 X104.744 Y102.009 E.01228
G1 X104.44 Y101.681 E.01403
G1 X104.038 Y101.409 E.01523
G1 X103.66 Y101.245 E.01292
G1 X103.126 Y101.121 E.01719
G1 X102.553 Y101.088 E.018
G1 X101.861 Y101.161 E.02179
G1 X101.211 Y101.372 E.02144
G1 X100.576 Y101.756 E.02327
G1 X100.143 Y102.174 E.01887
G1 X99.907 Y102.512 E.01293
G1 X99.917 Y100.264 E.07048
G1 X99.963 Y99.898 E.01156
G1 X100.07 Y99.587 E.01033
G1 X100.305 Y99.316 E.01123
G1 X100.504 Y99.225 E.00687
G1 X100.854 Y99.133 E.01135
G1 X124.158 Y97.717 E.73202
G1 X125.241 Y97.693 E.03396
G1 X126.036 Y97.726 E.02497
G1 X126.735 Y97.793 E.02201
G1 X127.309 Y97.873 E.01816
G1 X127.974 Y97.996 E.0212
G1 X128.861 Y98.217 E.02868
G1 X129.511 Y98.413 E.02128
G1 X130.2 Y98.665 E.02298
G1 X130.754 Y98.894 E.0188
G1 X131.623 Y99.318 E.03033
G1 X132.157 Y99.61 E.01908
G1 X132.778 Y99.995 E.02291
G1 X133.346 Y100.386 E.02164
G1 X133.95 Y100.851 E.02388
M73 P0 R84
G1 X134.502 Y101.324 E.02278
G1 X134.949 Y101.746 E.01928
G1 X135.5 Y102.321 E.02499
;WIDTH:0.46556
G1 X135.556 Y102.42 E.00398
;WIDTH:0.51112
G1 X135.612 Y102.518 E.00441
;WIDTH:0.55668
G1 X135.667 Y102.617 E.00484
;WIDTH:0.60224
G1 X135.723 Y102.715 E.00526
;WIDTH:0.6478
G1 X135.779 Y102.814 E.00569
G1 X135.708 Y102.803 E.00357
;WIDTH:0.605095
G1 X135.638 Y102.792 E.00332
;WIDTH:0.56239
G1 X135.568 Y102.781 E.00307
;WIDTH:0.519684
G1 X135.306 Y102.74 E.01051
;WIDTH:0.469842
G1 X135.044 Y102.699 E.00941
;WIDTH:0.419999
G1 X132.998 Y102.7 E.06418
G1 X132.399 Y102.793 E.01899
G1 X131.938 Y103.039 E.01637
G1 X131.807 Y103.215 E.00691
M204 S1000
;WIPE_START
G1 F8640
G1 X131.456 Y102.914 E-.10678
G1 X131.026 Y102.734 E-.1077
G1 X130.718 Y102.73 E-.07121
G1 X130.358 Y102.848 E-.08733
G1 X130.146 Y103.002 E-.06061
G1 X129.741 Y103.509 E-.14975
G1 X129.538 Y104.044 E-.13212
G1 X129.48 Y103.86 E-.0445
;WIPE_END
G1 E-.04 F2100
G1 Z.6 F720
G1 X136.183 Y103.302 F10800
G1 Z.2 F720
G1 E.8 F2100
M204 S800
;WIDTH:0.62078
G1 F1200
G1 X136.254 Y103.36 E.00441
;WIDTH:0.575814
G1 X136.325 Y103.418 E.00406
;WIDTH:0.530848
G1 X136.396 Y103.476 E.00372
;WIDTH:0.485882
G1 X136.466 Y103.535 E.00338
;WIDTH:0.440915
G1 X136.673 Y103.803 E.01121
;WIDTH:0.419999
G1 X136.987 Y104.282 E.01796
G1 X137.279 Y104.794 E.01849
G1 X137.323 Y105.04 E.00783
G1 X137.24 Y105.296 E.00845
G1 X136.834 Y105.957 E.02431
G1 X136.098 Y107.054 E.04143
G1 X135.963 Y106.826 E.00832
G1 X135.748 Y106.622 E.00929
G1 X135.376 Y106.426 E.01319
G1 X134.952 Y106.363 E.01345
G1 X135.478 Y105.652 E.02775
G1 X135.989 Y104.909 E.02825
G1 X136.2 Y104.41 E.017
G1 X136.229 Y103.85 E.01757
;WIDTH:0.460156
G1 X136.22 Y103.74 E.00382
;WIDTH:0.500312
G1 X136.211 Y103.631 E.00419
;WIDTH:0.540468
G1 X136.202 Y103.521 E.00455
;WIDTH:0.580624
G1 X136.192 Y103.411 E.00492
;WIDTH:0.62078
G1 X136.188 Y103.361 E.0024
M204 S1000
;WIPE_START
G1 F8640
G1 X136.254 Y103.36 E-.0152
G1 X136.325 Y103.418 E-.02117
G1 X136.396 Y103.476 E-.02117
G1 X136.466 Y103.535 E-.02117
G1 X136.673 Y103.803 E-.07823
G1 X136.987 Y104.282 E-.13223
G1 X137.279 Y104.794 E-.13614
G1 X137.323 Y105.04 E-.05767
G1 X137.24 Y105.296 E-.06222
G1 X136.834 Y105.957 E-.17902
G1 X136.748 Y106.086 E-.03578
;WIPE_END
G1 E-.04 F2100
G1 Z.6 F720
G1 X115.29 Y103.407 F10800
G1 Z.2 F720
G1 E.8 F2100
M204 S800
;WIDTH:0.533866
G1 F1200
G1 X115.305 Y103.921 E.02099
;WIDTH:0.503082
G1 X115.303 Y105.183 E.04827
G1 X115.173 Y104.909 E.01159
G1 X115.015 Y104.705 E.00989
G1 X114.741 Y104.474 E.0137
G1 X115.014 Y104.179 E.01538
G1 X115.159 Y103.905 E.01188
;WIDTH:0.533866
G1 X115.275 Y103.465 E.01854
M204 S1000
;WIPE_START
G1 F8640
G1 X115.305 Y103.921 E-.10552
G1 X115.303 Y105.183 E-.29128
G1 X115.173 Y104.909 E-.06992
G1 X115.015 Y104.705 E-.05967
G1 X114.741 Y104.474 E-.08268
G1 X115.014 Y104.179 E-.09282
G1 X115.132 Y103.957 E-.05809
;WIPE_END
G1 E-.04 F2100
G1 Z.6 F720
G1 X103.655 Y105.774 F10800
G1 Z.2 F720
G1 E.8 F2100
M204 S800
;WIDTH:0.419999
G1 F1200
G1 X103.341 Y105.834 E.01
G1 X103.002 Y106.026 E.01223
G1 X102.809 Y106.222 E.00863
G1 X102.575 Y106.271 E.00747
G1 X102.27 Y106.203 E.00981
G1 X102.086 Y106.059 E.00734
G1 X101.94 Y105.707 E.01193
G1 X101.881 Y105.288 E.01327
G1 X101.869 Y104.746 E.01699
G1 X101.937 Y104.201 E.01722
G1 X102.083 Y103.874 E.01122
G1 X102.339 Y103.694 E.00982
G1 X102.603 Y103.68 E.00828
G1 X103.235 Y104.03 E.02265
G1 X103.573 Y104.146 E.01119
G1 X103.925 Y104.18 E.01109
G1 X104.245 Y104.123 E.01021
G1 X104.636 Y103.898 E.01412
G1 X104.966 Y103.456 E.01732
G1 X105.184 Y103.615 E.00848
G1 X105.481 Y103.761 E.01036
G1 X105.957 Y103.823 E.01506
G1 X106.495 Y103.762 E.01698
G1 X106.51 Y106.553 E.08751
G1 X106.496 Y107.35 E.025
G1 X106.517 Y107.836 E.01526
G1 X106.689 Y108.211 E.01294
G1 X107.044 Y108.515 E.01463
G1 X107.256 Y108.612 E.00733
G1 X107.66 Y108.696 E.01293
G1 X108.07 Y108.651 E.01292
G1 X108.451 Y108.485 E.01303
G1 X108.752 Y108.195 E.0131
G1 X108.936 Y107.843 E.01247
G1 X109.029 Y107.361 E.01538
G1 X109.014 Y103.794 E.11183
G1 X109.211 Y103.796 E.00618
G1 X109.804 Y103.751 E.01864
G1 X110.346 Y103.566 E.01795
G1 X110.642 Y103.302 E.01243
G1 X110.796 Y103.518 E.00831
G1 X111.002 Y103.728 E.00924
G1 X111.388 Y103.927 E.01362
G1 X111.349 Y103.97 E.00182
G1 X111.143 Y104.439 E.01607
G1 X111.116 Y104.968 E.01659
G1 X111.3 Y105.418 E.01525
G1 X111.57 Y105.682 E.01184
;WIDTH:0.454218
G1 X111.741 Y105.784 E.00682
;WIDTH:0.488436
G1 X111.913 Y105.886 E.00739
G1 X111.706 Y105.882 E.00765
;WIDTH:0.451998
G1 X111.111 Y106.029 E.02087
;WIDTH:0.419999
G1 X110.702 Y106.357 E.01645
G1 X110.551 Y106.574 E.00827
G1 X110.47 Y106.783 E.00702
G1 X110.418 Y107.196 E.01306
G1 X110.481 Y107.591 E.01253
G1 X110.625 Y107.924 E.01138
G1 X110.907 Y108.274 E.01409
G1 X111.32 Y108.549 E.01557
G1 X112.035 Y108.783 E.02358
G1 X112.915 Y108.839 E.02764
G1 X113.412 Y108.776 E.01571
G1 X114.172 Y108.501 E.02535
G1 X114.65 Y108.148 E.01863
G1 X115.075 Y107.635 E.02089
G1 X115.329 Y107.128 E.01779
G1 X115.372 Y107.697 E.01789
G1 X115.536 Y108.114 E.01406
G1 X115.871 Y108.502 E.01606
G1 X116.206 Y108.656 E.01158
G1 X116.56 Y108.702 E.01118
G1 X117.127 Y108.664 E.01782
G1 X117.878 Y108.67 E.02356
G1 X118.451 Y108.638 E.018
G1 X118.953 Y108.559 E.01594
G1 X119.446 Y108.408 E.01615
G1 X119.925 Y108.117 E.01761
G1 X120.163 Y107.88 E.01051
G1 X120.251 Y108.207 E.01063
G1 X120.54 Y108.626 E.01594
G1 X120.714 Y108.786 E.00742
G1 X121.257 Y109.072 E.01925
G1 X121.652 Y109.147 E.01261
G1 X122.179 Y109.097 E.01658
G1 X122.554 Y108.944 E.01271
G1 X122.972 Y108.622 E.01655
G1 X123.157 Y108.312 E.01131
G1 X123.218 Y108.424 E.00401
G1 X123.419 Y108.612 E.00861
G1 X123.632 Y108.738 E.00776
G1 X123.96 Y108.825 E.01064
G1 X124.401 Y108.779 E.01389
G1 X124.758 Y108.573 E.01294
G1 X125.109 Y108.076 E.01906
G1 X125.351 Y108.476 E.01466
G1 X125.643 Y108.722 E.01197
G1 X125.971 Y108.853 E.01106
G1 X126.326 Y108.873 E.01116
;WIDTH:0.439296
G1 X126.802 Y108.767 E.01606
;WIDTH:0.483411
G1 X127.028 Y108.614 E.01
;WIDTH:0.527525
G1 X127.254 Y108.462 E.011
;WIDTH:0.547457
G1 X127.44 Y108.181 E.01413
;WIDTH:0.575175
G1 X127.506 Y107.946 E.01079
;WIDTH:0.602892
G1 X127.571 Y107.711 E.01135
G1 X127.536 Y107.513 E.00937
;WIDTH:0.564571
G1 X127.501 Y107.315 E.00873
;WIDTH:0.526397
G1 X127.315 Y106.827 E.02101
G1 X127.11 Y106.519 E.01483
;WIDTH:0.490931
G1 X126.906 Y106.212 E.01374
;WIDTH:0.455465
G1 X126.701 Y105.905 E.01266
;WIDTH:0.419999
G1 X126.591 Y105.721 E.00673
G1 X127.116 Y104.776 E.0339
G1 X127.408 Y105.564 E.02636
;WIDTH:0.455465
G1 X127.521 Y105.915 E.01266
;WIDTH:0.490931
G1 X127.635 Y106.266 E.01374
;WIDTH:0.526397
G1 X127.957 Y107.161 E.03823
;WIDTH:0.564571
G1 X128.055 Y107.438 E.01275
;WIDTH:0.602892
G1 X128.153 Y107.715 E.01369
G1 X127.96 Y108.239 E.02603
;WIDTH:0.564938
G1 X127.742 Y108.709 E.02247
G1 X127.589 Y108.786 E.00744
;WIDTH:0.528485
G1 X127.436 Y108.863 E.00692
;WIDTH:0.492032
G1 X127.282 Y108.939 E.0064
;WIDTH:0.455578
G1 X126.92 Y109.163 E.01462
;WIDTH:0.435037
G1 X126.679 Y109.409 E.0112
;WIDTH:0.419999
G1 X126.529 Y109.755 E.01186
G1 X126.526 Y110.3 E.01707
G1 X126.693 Y110.743 E.01486
G1 X127.013 Y111.124 E.0156
G1 X127.247 Y111.269 E.00862
;WIDTH:0.459882
G1 X127.444 Y111.333 E.00721
;WIDTH:0.499765
G1 X127.642 Y111.398 E.0079
;WIDTH:0.539648
G1 X127.84 Y111.463 E.00859
G1 X128.437 Y111.361 E.02503
;WIDTH:0.549229
G1 X129.036 Y111.14 E.02687
G1 X129.103 Y111.076 E.0039
;WIDTH:0.505936
G1 X129.17 Y111.012 E.00357
;WIDTH:0.462643
G1 X129.554 Y110.645 E.01853
;WIDTH:0.419999
G1 X129.894 Y110.139 E.01914
G1 X130.307 Y109.181 E.03269
G1 X130.562 Y108.524 E.02212
G1 X131.524 Y105.834 E.08957
G1 X131.854 Y104.78 E.03463
G1 X132.007 Y104.923 E.00658
G1 X132.274 Y105.063 E.00944
G1 X132.795 Y105.154 E.01657
G1 X132.378 Y105.637 E.02002
;WIDTH:0.459462
G1 X131.77 Y106.436 E.03477
G1 X131.515 Y106.974 E.02061
;WIDTH:0.421805
G1 X131.453 Y107.183 E.00688
G1 X131.436 Y107.793 E.01922
;WIDTH:0.419999
G1 X131.619 Y108.292 E.01665
G1 X131.943 Y108.662 E.01543
G1 X132.361 Y108.842 E.01426
G1 X132.589 Y108.882 E.00726
G1 X134.365 Y108.832 E.05572
G1 X133.429 Y109.554 E.03708
G1 X132.537 Y110.161 E.03382
G1 X131.431 Y110.781 E.03976
G1 X130.563 Y111.19 E.03008
G1 X129.998 Y111.417 E.01909
;WIDTH:0.44676
G1 X129.721 Y111.5 E.00971
;WIDTH:0.473521
G1 X129.444 Y111.583 E.01035
;WIDTH:0.506183
G1 X129.199 Y111.641 E.00972
;WIDTH:0.538844
G1 X128.195 Y111.902 E.04277
;WIDTH:0.526255
G1 X127.871 Y111.993 E.01351
;WIDTH:0.476444
G1 X127.548 Y112.085 E.01212
;WIDTH:0.426633
G1 X126.99 Y112.178 E.01804
;WIDTH:0.419999
G1 X126.385 Y112.249 E.01909
G1 X125.758 Y112.294 E.01973
G1 X124.991 Y112.312 E.02405
G1 X124.183 Y112.285 E.02535
G1 X100.993 Y110.876 E.72844
G1 X100.569 Y110.797 E.01351
